X: 1
T: Cottesloe Beach
M: 6/8
L: 1/8
R: jig
K: Amix
E|:A (3Bcd cAG|zEG ~F2D|zEG ~F2D|EAA GAA|
A (3Bcd cAe|zce dcA|Gz(g g)fg|afd geG:|
ABG ABG|Az(e e)dB|ABG ABG|Az(f f)ed|
g2g gfe|efd z2B|efg afd|1ge=c fdG:|2 bge az2||
